sourses/img/Vector4.svg

<svg width="64" height="23" viewBox="0 0 64 23" fill="none" xmlns="http://www.w3.org/2000/svg">
<path d="M8.61414 8.89C11.5741 8.89 13.7541 9.48 15.1541 10.66C16.5741 11.84 17.2841 13.42 17.2841 15.4C17.2841 16.68 16.9641 17.85 16.3241 18.91C15.6841 19.95 14.7041 20.79 13.3841 21.43C12.0841 22.05 10.4741 22.36 8.55414 22.36C7.07414 22.36 5.61414 22.17 4.17414 21.79C2.75414 21.39 1.54414 20.83 0.544141 20.11L2.46414 16.39C3.26414 16.99 4.18414 17.46 5.22414 17.8C6.26414 18.12 7.33414 18.28 8.43414 18.28C9.65414 18.28 10.6141 18.04 11.3141 17.56C12.0141 17.08 12.3641 16.41 12.3641 15.55C12.3641 14.65 11.9941 13.97 11.2541 13.51C10.5341 13.05 9.27414 12.82 7.47414 12.82H2.10414L3.18414 0.999999H15.9941V4.9H7.23414L6.90414 8.89H8.61414ZM28.2559 22.36C26.5159 22.36 24.9659 21.93 23.6059 21.07C22.2459 20.21 21.1759 18.97 20.3959 17.35C19.6359 15.71 19.2559 13.76 19.2559 11.5C19.2559 9.24 19.6359 7.3 20.3959 5.68C21.1759 4.04 22.2459 2.79 23.6059 1.93C24.9659 1.07 26.5159 0.64 28.2559 0.64C29.9959 0.64 31.5459 1.07 32.9059 1.93C34.2659 2.79 35.3259 4.04 36.0859 5.68C36.8659 7.3 37.2559 9.24 37.2559 11.5C37.2559 13.76 36.8659 15.71 36.0859 17.35C35.3259 18.97 34.2659 20.21 32.9059 21.07C31.5459 21.93 29.9959 22.36 28.2559 22.36ZM28.2559 18.25C29.5359 18.25 30.5359 17.7 31.2559 16.6C31.9959 15.5 32.3659 13.8 32.3659 11.5C32.3659 9.2 31.9959 7.5 31.2559 6.4C30.5359 5.3 29.5359 4.75 28.2559 4.75C26.9959 4.75 25.9959 5.3 25.2559 6.4C24.5359 7.5 24.1759 9.2 24.1759 11.5C24.1759 13.8 24.5359 15.5 25.2559 16.6C25.9959 17.7 26.9959 18.25 28.2559 18.25ZM44.4773 12.34C42.9373 12.34 41.6773 11.82 40.6973 10.78C39.7373 9.72 39.2573 8.31 39.2573 6.55C39.2573 4.79 39.7373 3.39 40.6973 2.35C41.6773 1.29 42.9373 0.76 44.4773 0.76C46.0173 0.76 47.2673 1.29 48.2273 2.35C49.1873 3.39 49.6673 4.79 49.6673 6.55C49.6673 8.31 49.1873 9.72 48.2273 10.78C47.2673 11.82 46.0173 12.34 44.4773 12.34ZM56.9873 0.999999H60.5573L46.2173 22H42.6473L56.9873 0.999999ZM44.4773 9.88C45.1573 9.88 45.6873 9.6 46.0673 9.04C46.4673 8.48 46.6673 7.65 46.6673 6.55C46.6673 5.45 46.4673 4.62 46.0673 4.06C45.6873 3.5 45.1573 3.22 44.4773 3.22C43.8173 3.22 43.2873 3.51 42.8873 4.09C42.4873 4.65 42.2873 5.47 42.2873 6.55C42.2873 7.63 42.4873 8.46 42.8873 9.04C43.2873 9.6 43.8173 9.88 44.4773 9.88ZM58.7273 22.24C57.7273 22.24 56.8273 22.01 56.0273 21.55C55.2473 21.07 54.6373 20.39 54.1973 19.51C53.7573 18.63 53.5373 17.61 53.5373 16.45C53.5373 15.29 53.7573 14.27 54.1973 13.39C54.6373 12.51 55.2473 11.84 56.0273 11.38C56.8273 10.9 57.7273 10.66 58.7273 10.66C60.2673 10.66 61.5173 11.19 62.4773 12.25C63.4573 13.29 63.9473 14.69 63.9473 16.45C63.9473 18.21 63.4573 19.62 62.4773 20.68C61.5173 21.72 60.2673 22.24 58.7273 22.24ZM58.7273 19.78C59.4073 19.78 59.9373 19.5 60.3173 18.94C60.7173 18.36 60.9173 17.53 60.9173 16.45C60.9173 15.37 60.7173 14.55 60.3173 13.99C59.9373 13.41 59.4073 13.12 58.7273 13.12C58.0673 13.12 57.5373 13.4 57.1373 13.96C56.7373 14.52 56.5373 15.35 56.5373 16.45C56.5373 17.55 56.7373 18.38 57.1373 18.94C57.5373 19.5 58.0673 19.78 58.7273 19.78Z" fill="#D7A950"/>
</svg>

<svg width="64" height="23" fill="none" xmlns="http://www.w3.org/2000/svg"><path d="M8.614 8.89c2.96 0 5.14.59 6.54 1.77 1.42 1.18 2.13 2.76 2.13 4.74 0 1.28-.32 2.45-.96 3.51-.64 1.04-1.62 1.88-2.94 2.52-1.3.62-2.91.93-4.83.93-1.48 0-2.94-.19-4.38-.57-1.42-.4-2.63-.96-3.63-1.68l1.92-3.72c.8.6 1.72 1.07 2.76 1.41 1.04.32 2.11.48 3.21.48 1.22 0 2.18-.24 2.88-.72.7-.48 1.05-1.15 1.05-2.01 0-.9-.37-1.58-1.11-2.04-.72-.46-1.98-.69-3.78-.69h-5.37L3.184 1h12.81v3.9h-8.76l-.33 3.99h1.71zm19.642 13.47c-1.74 0-3.29-.43-4.65-1.29-1.36-.86-2.43-2.1-3.21-3.72-.76-1.64-1.14-3.59-1.14-5.85s.38-4.2 1.14-5.82c.78-1.64 1.85-2.89 3.21-3.75 1.36-.86 2.91-1.29 4.65-1.29 1.74 0 3.29.43 4.65 1.29 1.36.86 2.42 2.11 3.18 3.75.78 1.62 1.17 3.56 1.17 5.82 0 2.26-.39 4.21-1.17 5.85-.76 1.62-1.82 2.86-3.18 3.72-1.36.86-2.91 1.29-4.65 1.29zm0-4.11c1.28 0 2.28-.55 3-1.65.74-1.1 1.11-2.8 1.11-5.1s-.37-4-1.11-5.1c-.72-1.1-1.72-1.65-3-1.65-1.26 0-2.26.55-3 1.65-.72 1.1-1.08 2.8-1.08 5.1s.36 4 1.08 5.1c.74 1.1 1.74 1.65 3 1.65zm16.221-5.91c-1.54 0-2.8-.52-3.78-1.56-.96-1.06-1.44-2.47-1.44-4.23 0-1.76.48-3.16 1.44-4.2.98-1.06 2.24-1.59 3.78-1.59 1.54 0 2.79.53 3.75 1.59.96 1.04 1.44 2.44 1.44 4.2 0 1.76-.48 3.17-1.44 4.23-.96 1.04-2.21 1.56-3.75 1.56zM56.987 1h3.57l-14.34 21h-3.57l14.34-21zm-12.51 8.88c.68 0 1.21-.28 1.59-.84.4-.56.6-1.39.6-2.49 0-1.1-.2-1.93-.6-2.49-.38-.56-.91-.84-1.59-.84-.66 0-1.19.29-1.59.87-.4.56-.6 1.38-.6 2.46s.2 1.91.6 2.49c.4.56.93.84 1.59.84zm14.25 12.36c-1 0-1.9-.23-2.7-.69-.78-.48-1.39-1.16-1.83-2.04-.44-.88-.66-1.9-.66-3.06 0-1.16.22-2.18.66-3.06.44-.88 1.05-1.55 1.83-2.01.8-.48 1.7-.72 2.7-.72 1.54 0 2.79.53 3.75 1.59.98 1.04 1.47 2.44 1.47 4.2 0 1.76-.49 3.17-1.47 4.23-.96 1.04-2.21 1.56-3.75 1.56zm0-2.46c.68 0 1.21-.28 1.59-.84.4-.58.6-1.41.6-2.49 0-1.08-.2-1.9-.6-2.46-.38-.58-.91-.87-1.59-.87-.66 0-1.19.28-1.59.84-.4.56-.6 1.39-.6 2.49 0 1.1.2 1.93.6 2.49.4.56.93.84 1.59.84z" fill="#D7A950"/></svg>
